X: 13
T:Blackthorn Bush
R:Reel
S:Dubliners album
D:Some Dubliners album
Z:added by Alf 
M:4/4
L:1/8
Q:1/2=112
K:D
fe|d2FB AFEF|D2dc BABc|dF~F2 AFAF|GBAF D2:|
A2|defd efge|~A2cA eAfe|defg ~a3b|afeg fecA|
defd efge|~A2cA eAfe|defg ~a3b|afef d2|]
